X: 1
T: Con Cassidy's Jig
R: jig
B: The Portland Collection v.2 p.40
Z: 2012 John Chambers <jc:trillian.mit.edu>
M: 6/8
L: 1/8
K: G
|: A |\
"G"B3 BAB | "G"d2c "D"AGF | "Em"G3 GFG | "(A7)"BAG "D"A2B |\
"C"c3 cBc | "G"ded B2c | "D7"ded cAF | "G"GBd g2 :|
|: g |\
"D"f2d def | "G"gfg "Am"a2g | "D"f2d ded | "Am"c2A A2g |\
"D"f2d def | "G"gfg "A7"a2g | "D"f2d "A7"ed^c |1 "D"d3 de :|2 "D7"ded "d.C."cB |]
